X:1
T:Ghost Ship
C:Jean-Francois Beaulieu
Z:robin.beech@mcgill.ca
N:Halloween Composition 2008
M:4/4
L:1/8
K:Ador
G2 FG Acde | d2dG cGdG | A2^GA cAdA | e2eA dAeA | 
Beef gfed | c2cB cdeg | agec d2fg |1 abaf g2BA :|2 abaf g2dB |:
cea^g a2ec | dcA^G A2cA | Bdgf g2dB | cBGF G2dB | 
cea^g a2ec dcA^G A2cA |1 Bdgf e2Ac | edB^G AGAB :|2 Bd=gf e2ba | geB^G A4 |]
